X:149
T:Punchanello
M:C
L:1/8
B:Thompson's Compleat Collection of 200 Favourite Country Dances, vol. 2 (London, 1765)
Z:Transcribed and edited by Flynn Titford-Mock, 2007
Z:abc's:AK/Fiddler's Companion
K:D
a2 fa g2 ef | gfed cBAG | FA d2 Gbeg | fedc d2D2 :|
|: A2 FA B2 dB | BAGF AGFE | A2 FA B2 dB | AGFE D4 :|

